images/about/about-picturehouse.svg

<svg height="150" viewBox="0 0 250 150" width="250" xmlns="http://www.w3.org/2000/svg"><g fill="#2f2b2b" transform="translate(0 21)"><path d="m31.0808158 2.0025632c-19.9720564-.25308844-32.40572192 18.2948932-30.96818469 29.563581.17535237 1.3784818.8377667 1.5582946 1.99780943.9225724l7.02893815-3.7185494c.73008978-.3883857 1.35250261-.9000645 1.53942781-2.0084519 1.358289-8.1348427 8.4777965-18.15434404 19.949414-18.08682044 28.0480772.17431091 24.9126158 43.90934424-4.5614259 40.11751914-.3169928-.0392637-.7469457-.2588405-.6961262-.9058165.2830293-3.5557426 1.6410667-20.8207759 2.0430941-26.44124.0734618-1.0688735-.7980168-1.479517-2.0204518-.7987791l-7.4025368 4.129443c-1.2845756.5344368-1.5960336 1.5245328-1.6808166 2.6271681l-4.6351393 61.1746276c-.2432794 2.4978729 1.0865809 2.9480302 2.9711786 1.8794067l6.0273918-3.3814316c1.5449626-.8605507 1.7429573-2.1379971 1.9580596-3.9378761l1.6299971-20.2418235c.0792482-.7705193.2093159-1.2319305.7527322-1.2036707 46.7010912 2.8635007 44.5276778-59.20018758 6.0666385-59.6898587"/><path d="m72.5 19c3.0412461 0 5.5-2.4585072 5.5-5.5002467 0-3.035325-2.4587539-5.4997533-5.5-5.4997533-3.0358184 0-5.5 2.4644283-5.5 5.4997533 0 3.0417395 2.4644283 5.5002467 5.5 5.5002467"/><path d="m249.899653 16.5684242c-.331371-.8942601-1.257363-2.838239-1.807568-2.8044652-.645525.0389888-.718386.3742432-2.099015 2.1451315-11.18177 14.4243831-19.180333 6.5416828-17.766018 5.6928683 14.577572-8.6927744 14.16785-19.71469774 7.824893-21.36837117-6.993971-1.82105229-21.021338 7.12825378-19.724799 22.55765507-.011229.3355028-.258011.5364071-.476845.7879721-1.493165 1.7147642-5.534741 5.8378968-8.492625 2.9609173-4.27164-4.1452346 3.895354-14.2229822 4.080752-15.603237.241291-1.78752684-5.175424-7.02767744-6.668589-6.34053007-4.35598 1.99985464-9.694094 4.15069794-11.703279 4.46360206-.246782.03352544-.409972-.13956517-.353579-.38541841.381525-1.87146462 1.077454-8.05007924-1.28531-8.53036222-2.958133-.5977462-13.022524 5.55280638-10.142992 12.79281164 1.835266 3.8045167 4.484985 2.3184705 4.120178 3.6033641-.763301 3.0500701-3.087389 9.2453233-6.881934 14.0496431-2.239747 2.8325273-4.804628 2.1622668-4.681362-.0948645l.134744-2.5640754s.662243-11.6474833.825184-16.1669611c.050654-1.4857979-.965168-2.06144209-2.234009-1.4023568l-7.707366 3.9944943c-.712647.3685315-1.184501 1.0780291-1.240644 1.8823914-.168431 2.2010073-.499552 6.6367956-.589132 8.284509-.134744 2.2345327-4.748734 9.7372781-7.981845 11.3291157-3.233111 1.5923343-3.446456-1.4577358-3.446456-3.519178 0-1.6198996.94271-12.8769977 1.268342-17.5971315.061633-.8883-.819445-1.3911816-2.048611-.8155374l-8.071924 4.2512743c-.780269.4075204-1.302277 1.1895323-1.36416 2.0666572-.196377 2.5474368-.589131 7.7654855-.701668 8.9604812-.235552 2.6204478-5.556949 10.6702787-9.828589 10.6702787-1.745685 0-3.036983-1.955154-3.036983-4.8770825 0-2.9162167.50529-10.4522392.634295-12.1893537.016719-.251565.207606-.458181.454637-.4971699l6.124123-.994588c.791497-.1283901 1.386118-.7763003 1.448-1.5697357l.308664-3.9440819c.028197-.4132321-.325632-.7427748-.735354-.6871474l-6.359425.8937635c-.398743.056124-.752072-.2679552-.729615-.6757239l.634046-9.78197871c.056393-.93300061-.931481-1.56427225-1.756914-1.12272977-2.295641 1.22901783-6.067729 3.24551103-7.779978 4.12288424-.976646.50263328-1.532341 1.43017048-1.593974 2.39669654l-.432179 6.4520332c-.016719.2289664-.190888.4137288-.421201.4472542l-2.233759.3854184c-.41571.0836895-.746832.3071924-.836661.7651251l-.577903 4.4412518c-.07336.5642207.426441 1.0392886.987875.9498875l2.284662-.3521413c.129005-.0275654.241042.078226.235303.2068643-.050404.8657014-.201867 3.7200823-.286207 4.6756816-.129005 1.5307468.00574 2.3964481-.370296 3.0222564-18.4280119 30.2724799-27.0553814-.6759722-16.749449-6.3405301 2.553901-1.4078202 3.5026 2.1230296 2.177865 5.0444614-.297435.6650454.516519 1.3072438 1.184501.8994751.85313-.5195201 6.017325-3.4804374 6.017325-3.4804374 1.223677-.6814357 1.358421-1.4805828 1.206709-2.8715161-.280717-2.6365897-2.56513-6.3904458-9.727531-5.0836986-13.0619494 2.3852731-15.7673128 17.5022669-16.1154019 20.6027494-.0394252.3797067-.1851485.7430231-.4097221 1.0447521-1.1226185 1.5029331-4.6534147 5.9493999-7.0164282 5.9493999-2.2003223 0-2.1723754-2.4801376-2.1159824-3.6927652.0728616-1.4634476 1.4929154-18.8204376 1.4929154-18.8204376.0673721-.7315997-.7296147-1.2233061-1.3639104-.8490629-2.1386893 1.2461531-6.0455216 3.5248897-8.2346152 4.7819696-.9933639.5753959-1.6388883 1.6032611-1.7174891 2.7431261-.0391756.5359104-.7071573 8.2455201-1.4145642 16.3624019-.6118383 7.117327 8.0100416 12.2564046 15.2116183 5.8714223 4.7429946-4.2177489 7.0446246-6.8039262 7.3028843-7.0890166.0786007-.0782261.2358022-.0839378.2749779.0225986.5165193 1.4522724 4.5803035 6.6755362 12.8146692 5.904451 8.8971074-.8378877 14.5773224-9.1002947 16.5870074-11.329364.185148-.2066161.4212-.1562038.527498.0951129.796987 1.8826397 4.047315 7.8936272 11.091691 6.8548352 5.383029-.7931871 9.778184-6.2342421 11.731975-8.7484018.246781-.3295427.606099-.301729.807965.0558757 1.139337 1.9832161 4.310816 6.0388012 8.818258 5.4075295 6.797344-.9608143 11.068983-6.9663383 12.708121-9.044419.25826-.3295426.516769-.1730906.634545.2848421.454637 1.8436509 2.363014 6.2513772 9.30683 5.1788115 11.231675-1.743323 17.956157-22.6028524 18.820766-25.736612.145972-.5252319.241291-.7656217.690439-.8940117.791746-.2346781 2.39121-.5361587 9.418617-3.4916126.039425-.0166386.078601.0332771.045414.0558757-.954189.7541983-10.272247 13.7983266-5.001504 21.1389081 7.622777 10.6141547 19.37122-2.2399961 21.868978-4.5974555.286207-.2739152.656753-.4191921.965417-.0615874 1.134097 1.2960687 4.35049 5.5135692 11.810077 4.5753535 9.402148-1.1788539 16.081716-9.8937302 18.298756-12.9269134.763301-1.0502155 1.509634-2.2012556 1.133848-3.1841719m-23.973732-.5979945c.982135-16.91544757 18.994935-11.3179406.774529.9106503-.813954.5527973-.830922.0727626-.774529-.9106503"/><path d="m235.736267 62.3073044c-8.119146 15.5519959-19.066734 9.508807-19.842581 7.968615-.140722-.2790653 0-.5023175.224955-.6362688 18.425362-10.663517 13.123409-23.1795311 3.306097-22.6216487-7.657987.4350938-17.795735 9.5586667-16.086323 23.3640863.067487.5469679.084234 1.0046349-.376925 1.3727529 0 0-5.594645 4.5702205-5.161481 2.399465.618378-3.1416545.545392-8.2136963-4.644083-12.6613761-5.117239-4.3861614-6.084048-6.1994654-6.084048-7.9123058-.258699-1.7634443-3.328593-3.0024939-9.851055 3.6434758-7.427783 7.5670091-6.780911 23.871861-13.337116 24.0616253-2.445517.0669757-2.299546-2.8849144-2.243557-4.7153344.129724-3.9562769 1.046044-16.0426545 1.181017-18.8777093.044991-.898218-.719858-1.3722569-1.551944-.915086l-8.237123 4.4030294c-.882576.4574189-1.439466.898218-1.484457 1.7574909-.489153 9.4584512-.905321 12.3768535-4.593593 17.0083443-3.666026 4.6091656-8.293362 4.6815985-8.006668 0 .224705-3.6439719.775846-9.8600571.826836-10.4181876.218957-2.6951501.415918-4.6037083.725107-8.5820624.061988-.8319865-.820838-1.4119461-1.56869-1.0215028l-2.350286 1.2445069-6.623442 3.4710755c-.466658.2453294-.843583.6248581-1.074288 1.0711144l-.016746.0277825c-.848833 1.7689016-3.907479 6.484236-9.901795 9.2629816-.629626.2902279-.916319.0277825-1.174768-.4184738-6.050055-10.3288868-19.145469 3.5993215-7.3433 8.3870888.326186.1337032.477906.641726.365428.970899-.65787 2.0648347-3.328593 8.464979-9.384397 8.4037087-5.9318282-.0615184-10.570662-14.4191151 3.39608-23.1634074 2.035598-1.2720414 4.245161-2.3153733 3.244359-4.0284618-.866079-1.4789217-5.515911-.1562765-7.185831.3569555-4.1946715 1.2886612-16.5307353 6.7685104-16.6207175 23.4811696-.0112478 2.4441154-8.9794767 9.4247154-8.4228366 1.8356291.15172-2.0087736.6521212-7.9237164 1.0402945-13.1579882.7758468-6.5120184-7.1690842-13.6712201-20.0337936-.2287094-.1459711.1560285-.4161678.0446504-.3936722-.1676872 0 0 1.2595012-17.1365904 1.3382357-19.5301019.0279945-.787088-.511649-1.0882305-1.1807668-.7421896l-8.35535 4.4251066c-.6353745.3514982-1.0570412 1.0046349-1.1075312 1.7302045l-3.1431293 43.6083472c-.0449911.80346.5511411 1.328102 1.4677101 1.222182l6.3085042-.809166c1.5576924-.228709 2.3165425-.680671 2.440518-2.717475.9333157-14.6589869 1.2929947-15.7692945 2.5302503-18.0013203 6.0443064-10.8867692 9.4181401-8.7889428 8.8557511-3.9061693-.2699466 2.3825971-.5228967 5.440656-.865829 10.2060981-.9953034 14.0175095 13.0616705 13.4370535 22.052145 1.8078467.0899823-.1225407.2644478-.0947582.3654279.0114106 12.6567504 13.6154072 30.1098034-2.0757493 30.8011674-12.3656909.022495-.3852341.179714-.7310269.832085-1.0043868 4.284404-1.8026375 8.822008-5.5187943 8.822008-5.5187943.191462-.1396566.449661.0166199.432915.2453294l-.415918 5.4183307c-1.16402 13.464836 10.064512 16.2549923 19.054987 6.2217906l3.817996-4.452889c.078484-.1002154.241702-.0612703.275195.0560611.416168 1.5290295 2.704466 8.4927615 9.384397 7.3544234 13.905004-2.3716825 14.709095-20.2333464 17.762242-25.9364477.539394-1.0155494 1.529448-1.0713624 1.877879-.3013904 2.243807 5.0055622 10.076011 8.0633731 7.427784 13.576462-1.304493 2.712018-5.931829 3.4539595-8.023666-.9485738-.388173-.8260331-1.405722-.8203278-2.114082.3177623 0 0-1.597185 2.3548145-1.827639 3.3594494-.230705.9986815 2.001854 7.0309558 9.6206 5.8591298 7.79821-1.1998565 18.847028-8.7832374 20.584434-9.9548153.123726-.0781383.292443-.0615184.388174.0498596.944313 1.0713625 5.841596 6.0878393 13.865512 4.7597368 7.377043-1.2221817 16.041582-7.3936165 18.824782-14.9884081.320187-.8758928.669118-1.8187612.280944-2.3044588.00025.0002481-2.085838-3.280815-3.092389-1.7128404m-22.597787 2.3436519c-1.06254-6.7853783 5.364191-13.8718991 8.445332-10.9872327 2.901427 2.7231807-3.570295 9.3691504-7.64674 11.4895502-.460909.239872-.719608.0057053-.798592-.5023175"/></g></svg>

<?xml version="1.0" encoding="UTF-8"?>
<svg width="250px" height="150px" viewBox="0 0 250 150" version="1.1" xmlns="http://www.w3.org/2000/svg" xmlns:xlink="http://www.w3.org/1999/xlink">
    <title>about-Picturehouse</title>
    <g id="about-Picturehouse" stroke="none" stroke-width="1" fill="none" fill-rule="evenodd">
        <g id="Picturehouse_Cinemas_2018" transform="translate(0.000000, 21.000000)" fill="#2F2B2B" fill-rule="nonzero">
            <path d="M31.0808158,2.0025632 C11.1087594,1.74947476 -1.32490612,20.2974564 0.112631105,31.5661442 C0.287983476,32.944626 0.950397812,33.1244388 2.11044054,32.4887166 L9.13937869,28.7701672 C9.86946847,28.3817815 10.4918813,27.8701027 10.6788065,26.7617153 C12.0370955,18.6268726 19.156603,8.60737126 30.6282205,8.67489486 C58.6762977,8.84920577 55.5408363,52.5842391 26.0667946,48.792414 C25.7498018,48.7531503 25.3198489,48.5335735 25.3706684,47.8865975 C25.6536977,44.3308549 27.0117351,27.0658216 27.4137625,21.4453575 C27.4872243,20.376484 26.6157457,19.9658405 25.3933107,20.6465784 L17.9907739,24.7760214 C16.7061983,25.3104582 16.3947403,26.3005542 16.3099573,27.4031895 L11.674818,88.5778171 C11.4315386,91.07569 12.7613989,91.5258473 14.6459966,90.4572238 L20.6733884,87.0757922 C22.218351,86.2152415 22.4163457,84.9377951 22.631448,83.1379161 L24.2614451,62.8960926 C24.3406933,62.1255733 24.470761,61.6641621 25.0141773,61.6924219 C71.7152685,64.5559226 69.5418551,2.49223432 31.0808158,2.0025632" id="Path"></path>
            <path d="M72.5,19 C75.5412461,19 78,16.5414928 78,13.4997533 C78,10.4644283 75.5412461,8 72.5,8 C69.4641816,8 67,10.4644283 67,13.4997533 C67,16.5414928 69.4644283,19 72.5,19" id="Path"></path>
            <path d="M249.899653,16.5684242 C249.568282,15.6741641 248.64229,13.7301852 248.092085,13.763959 C247.44656,13.8029478 247.373699,14.1382022 245.99307,15.9090905 C234.8113,30.3334736 226.812737,22.4507733 228.227052,21.6019588 C242.804624,12.9091844 242.394902,1.88726106 236.051945,0.233587633 C229.057974,-1.58746466 215.030607,7.36184141 216.327146,22.7912427 C216.315917,23.1267455 216.069135,23.3276498 215.850301,23.5792148 C214.357136,25.293979 210.31556,29.4171116 207.357676,26.5401321 C203.086036,22.3948975 211.25303,12.3171499 211.438428,10.9368951 C211.679719,9.14936826 206.263004,3.90921766 204.769839,4.59636503 C200.413859,6.59621967 195.075745,8.74706297 193.06656,9.05996709 C192.819778,9.09349253 192.656588,8.92040192 192.712981,8.67454868 C193.094506,6.80308406 193.790435,0.624469442 191.427671,0.144186457 C188.469538,-0.45355974 178.405147,5.69699284 181.284679,12.9369981 C183.119945,16.7415148 185.769664,15.2554686 185.404857,16.5403622 C184.641556,19.5904323 182.317468,25.7856855 178.522923,30.5900053 C176.283176,33.4225326 173.718295,32.7522721 173.841561,30.4951408 L173.976305,27.9310654 C173.976305,27.9310654 174.638548,16.2835821 174.801489,11.7641043 C174.852143,10.2783064 173.836321,9.70266221 172.56748,10.3617475 L164.860114,14.3562418 C164.147467,14.7247733 163.675613,15.4342709 163.61947,16.2386332 C163.451039,18.4396405 163.119918,22.8754288 163.030338,24.5231422 C162.895594,26.7576749 158.281604,34.2604203 155.048493,35.8522579 C151.815382,37.4445922 151.602037,34.3945221 151.602037,32.3330799 C151.602037,30.7131803 152.544747,19.4560822 152.870379,14.7359484 C152.932012,13.8476484 152.050934,13.3447668 150.821768,13.920411 L142.749844,18.1716853 C141.969575,18.5792057 141.447567,19.3612176 141.385684,20.2383425 C141.189307,22.7857793 140.796553,28.003828 140.684016,29.1988237 C140.448464,31.8192715 135.127067,39.8691024 130.855427,39.8691024 C129.109742,39.8691024 127.818444,37.9139484 127.818444,34.9920199 C127.818444,32.0758032 128.323734,24.5397807 128.452739,22.8026662 C128.469458,22.5511012 128.660345,22.3444852 128.907376,22.3054963 L135.031499,21.3109083 C135.822996,21.1825182 136.417617,20.534608 136.479499,19.7411726 L136.788163,15.7970907 C136.81636,15.3838586 136.462531,15.0543159 136.052809,15.1099433 L129.693384,16.0037068 C129.294641,16.0598308 128.941312,15.7357516 128.963769,15.3279829 L129.597815,5.54600419 C129.654208,4.61300358 128.666334,3.98173194 127.840901,4.42327442 C125.54526,5.65229225 121.773172,7.66878545 120.060923,8.54615866 C119.084277,9.04879194 118.528582,9.97632914 118.466949,10.9428552 L118.03477,17.3948884 C118.018051,17.6238548 117.843882,17.8086172 117.613569,17.8421426 L115.37981,18.227561 C114.9641,18.3112505 114.632978,18.5347534 114.543149,18.9926861 L113.965246,23.4339379 C113.891886,23.9981586 114.391687,24.4732265 114.953121,24.3838254 L117.237783,24.0316841 C117.366788,24.0041187 117.478825,24.1099101 117.473086,24.2385484 C117.422682,25.1042498 117.271219,27.9586307 117.186879,28.91423 C117.057874,30.4449768 117.192619,31.3106781 116.816583,31.9364864 C98.3885711,62.2089663 89.7612016,31.2605142 100.067134,25.5959563 C102.621035,24.1881361 103.569734,27.7189859 102.244999,30.6404177 C101.947564,31.3054631 102.761518,31.9476615 103.4295,31.5398928 C104.28263,31.0203727 109.446825,28.0594554 109.446825,28.0594554 C110.670502,27.3780197 110.805246,26.5788726 110.653534,25.1879393 C110.372817,22.5513496 108.088404,18.7974935 100.926003,20.1042407 C87.8640536,22.4895138 85.1586902,37.6065076 84.8106011,40.7069901 C84.7711759,41.0866968 84.6254526,41.4500132 84.400879,41.7517422 C83.2782605,43.2546753 79.7474643,47.7011421 77.3844508,47.7011421 C75.1841285,47.7011421 75.2120754,45.2210045 75.2684684,44.0083769 C75.34133,42.5449293 76.7613838,25.1879393 76.7613838,25.1879393 C76.8287559,24.4563396 76.0317691,23.9646332 75.3974734,24.3388764 C73.2587841,25.5850295 69.3519518,27.8637661 67.1628582,29.120846 C66.1694943,29.6962419 65.5239699,30.7241071 65.4453691,31.8639721 C65.4061935,32.3998825 64.7382118,40.1094922 64.0308049,48.226374 C63.4189666,55.343701 72.0408465,60.4827786 79.2424232,54.0977963 C83.9854178,49.8800474 86.2870478,47.2938701 86.5453075,47.0087797 C86.6239082,46.9305536 86.7811097,46.9248419 86.8202854,47.0313783 C87.3368047,48.4836507 91.4005889,53.7069145 99.6349546,52.9358293 C108.532062,52.0979416 114.212277,43.8355346 116.221962,41.6064653 C116.40711,41.3998492 116.643162,41.4502615 116.74946,41.7015782 C117.546447,43.5842179 120.796775,49.5952054 127.841151,48.5564134 C133.22418,47.7632263 137.619335,42.3221713 139.573126,39.8080116 C139.819907,39.4784689 140.179225,39.5062826 140.381091,39.8638873 C141.520428,41.8471034 144.691907,45.9026885 149.199349,45.2714168 C155.996693,44.3106025 160.268332,38.3050785 161.90747,36.2269978 C162.16573,35.8974552 162.424239,36.0539072 162.542015,36.5118399 C162.996652,38.3554908 164.905029,42.7632171 171.848845,41.6906514 C183.08052,39.9473284 189.805002,19.087799 190.669611,15.9540394 C190.815583,15.4288075 190.910902,15.1884177 191.36005,15.0600277 C192.151796,14.8253496 193.75126,14.523869 200.778667,11.5684151 C200.818092,11.5517765 200.857268,11.6016922 200.824081,11.6242908 C199.869892,12.3784891 190.551834,25.4226174 195.822577,32.7631989 C203.445354,43.3773536 215.193797,30.5232028 217.691555,28.1657434 C217.977762,27.8918282 218.348308,27.7465513 218.656972,28.104156 C219.791069,29.4002247 223.007462,33.6177252 230.467049,32.6795095 C239.869197,31.5006556 246.548765,22.7857793 248.765805,19.7525961 C249.529106,18.7023806 250.275439,17.5513405 249.899653,16.5684242 M225.925921,15.9704297 C226.908056,-0.945017873 244.920856,4.6524891 226.70045,16.88108 C225.886496,17.4338773 225.869528,16.9538426 225.925921,15.9704297" id="Shape"></path>
            <path d="M235.736267,62.3073044 C227.617121,77.8593003 216.669533,71.8161114 215.893686,70.2759194 C215.752964,69.9968541 215.893686,69.7736019 216.118641,69.6396506 C234.544003,58.9761336 229.24205,46.4601195 219.424738,47.0180019 C211.766751,47.4530957 201.629003,56.5766686 203.338415,70.3820882 C203.405902,70.9290561 203.422649,71.3867231 202.96149,71.7548411 C202.96149,71.7548411 197.366845,76.3250616 197.800009,74.1543061 C198.418387,71.0126516 198.345401,65.9406098 193.155926,61.49293 C188.038687,57.1067686 187.071878,55.2934646 187.071878,53.5806242 C186.813179,51.8171799 183.743285,50.5781303 177.220823,57.2241 C169.79304,64.7911091 170.439912,81.095961 163.883707,81.2857253 C161.43819,81.352701 161.584161,78.4008109 161.64015,76.5703909 C161.769874,72.614114 162.686194,60.5277364 162.821167,57.6926816 C162.866158,56.7944636 162.101309,56.3204247 161.269223,56.7775956 L153.0321,61.180625 C152.149524,61.6380439 151.592634,62.078843 151.547643,62.9381159 C151.05849,72.3965671 150.642322,75.3149694 146.95405,79.9464602 C143.288024,84.5556258 138.660688,84.6280587 138.947382,79.9464602 C139.172087,76.3024883 139.723228,70.0864031 139.774218,69.5282726 C139.993175,66.8331225 140.190136,64.9245643 140.499325,60.9462102 C140.561313,60.1142237 139.678487,59.5342641 138.930635,59.9247074 L136.580349,61.1692143 L129.956907,64.6402898 C129.490249,64.8856192 129.113324,65.2651479 128.882619,65.7114042 L128.865873,65.7391867 C128.01704,67.5080883 124.958394,72.2234227 118.964078,75.0021683 C118.334452,75.2923962 118.047759,75.0299508 117.78931,74.5836945 C111.739255,64.2548077 98.643841,78.183016 110.44601,82.9707833 C110.772196,83.1044865 110.923916,83.6125093 110.811438,83.9416823 C110.153568,86.006517 107.482845,92.4066613 101.427041,92.345391 C95.4952128,92.2838726 90.856379,77.9262759 104.823121,69.1819836 C106.858719,67.9099422 109.068282,66.8666103 108.06748,65.1535218 C107.201401,63.6746001 102.551569,64.9972453 100.881649,65.5104773 C96.6869775,66.7991385 84.3509137,72.2789877 84.2609315,88.9916469 C84.2496837,91.4357623 75.2814548,98.4163623 75.8380949,90.827276 C75.9898149,88.8185024 76.4902161,82.9035596 76.8783894,77.6692878 C77.6542362,71.1572694 69.7093052,63.9980677 56.8445958,77.4405784 C56.6986247,77.5966069 56.428428,77.4852288 56.4509236,77.2728912 C56.4509236,77.2728912 57.7104248,60.1363008 57.7891593,57.7427893 C57.8171538,56.9557013 57.2775103,56.6545588 56.6083925,57.0005997 L48.2530425,61.4257063 C47.617668,61.7772045 47.1960013,62.4303412 47.1455113,63.1559108 L44.002382,106.764258 C43.9573909,107.567718 44.5535231,108.09236 45.4700921,107.98644 L51.7785963,107.177274 C53.3362887,106.948565 54.0951388,106.496603 54.2191143,104.459799 C55.15243,89.8008121 55.512109,88.6905045 56.7493646,86.4584787 C62.793671,75.5717095 66.1675047,77.6695359 65.6051157,82.5523094 C65.3351691,84.9349065 65.082219,87.9929654 64.7392867,92.7584075 C63.7439833,106.775917 77.8009572,106.195461 86.7914317,94.5662542 C86.881414,94.4437135 87.0558795,94.471496 87.1568596,94.5776648 C99.81361,108.193072 117.266663,92.5019155 117.958027,82.2119739 C117.980522,81.8267398 118.137741,81.480947 118.790112,81.2075871 C123.074516,79.4049496 127.61212,75.6887928 127.61212,75.6887928 C127.803582,75.5491362 128.061781,75.7054127 128.045035,75.9341222 L127.629117,81.3524529 C126.465097,94.8172889 137.693629,97.6074452 146.684104,87.5742435 L150.5021,83.1213545 C150.580584,83.0211391 150.743802,83.0600842 150.777295,83.1774156 C151.193463,84.7064451 153.481761,91.6701771 160.161692,90.531839 C174.066696,88.1601565 174.870787,70.2984926 177.923934,64.5953913 C178.463328,63.5798419 179.453382,63.5240289 179.801813,64.2940009 C182.04562,69.2995631 189.877824,72.357374 187.229597,77.8704629 C185.925104,80.5824809 181.297768,81.3244224 179.205931,76.9218891 C178.817758,76.095856 177.800209,76.1015613 177.091849,77.2396514 C177.091849,77.2396514 175.494664,79.5944659 175.26421,80.5991008 C175.033505,81.5977823 177.266064,87.6300566 184.88481,86.4582306 C192.68302,85.2583741 203.731838,77.6749932 205.469244,76.5034153 C205.59297,76.425277 205.761687,76.4418969 205.857418,76.5532749 C206.801731,77.6246374 211.699014,82.6411142 219.72293,81.3130117 C227.099973,80.09083 235.764512,73.9193952 238.547712,66.3246036 C238.867899,65.4487108 239.21683,64.5058424 238.828656,64.0201448 C238.828906,64.0203929 236.742818,60.7393298 235.736267,62.3073044 M213.13848,64.6509563 C212.07594,57.865578 218.502671,50.7790572 221.583812,53.6637236 C224.485239,56.3869043 218.013517,63.032874 213.937072,65.1532738 C213.476163,65.3931458 213.217464,65.1589791 213.13848,64.6509563" id="Shape"></path>
        </g>
    </g>
</svg>
